X: 5642
T: Butterfly, The
R: slip jig
M: 9/8
K: Eminor
V:1
B,2E G2A|"Em"^A2B A2=A G3"Bm7"B,3D3|"Em"E3E3E3 "Bm7"FG/FE/D3|
"Em"E3E3E3 "Bm7"DE/DB,/ A,3|"Em"B,3B,3B,3 "Bm7"B,2E G2A||
"Em"^A2B A2=A G3"Bm7"B,3D3|"Em"E3E3E3 "Bm7"DE/DB,/ A,3|
"Em"B,3B,3B,3 "Bm7"FG/FE/D3|"Em"E3E3E3z6||
"Cmaj7"e2g z2e c3 "Am7"A2B c2^c|"Bm7"d2fz2d B3 "Em7"G2A ^A2B|
"Am7"c2e z2c A3 "D7"F2G A2^A|"Gmaj7"B2^A B2c d3 d2^cd2^d|
"Cmaj7"e2g z2e c3 "Am7"A2B c2^c|"Bm7"d2fz2d B3 "Em7"G2A ^A2B|
"Am7"c2e z2c A3 "D7"F2A d2c|"C#m7b5"B3B3B3 "B7b5"B,2E G2A||
V:2
z6|B2E G2E F3 B2E FED|B2E G2E F3 BdB AFD|
B2E G2E F3 B2E FED|B2E G2E F3 BdB AFD||
B2d e2f g3 B2e dBA|B2d e2f g2a bge dBA|
B2d e2f g3 B2e dBA|B2d e2f g2a bge dBA||
B3 B2A G2A BAB dBA|B3 B2A G2A g2e dBA|
B3 B2A G2A BAB dBA|B3 B2A G2A g2e dBA|
B3 B2A G2A BAB dBA|B3 B2A G2A g2e dBA|
B3 B2A G2A BAB dBA|B3 B2A G2A g2e dBA||

